Origami/24x24/apps/the-witcher-2.svg

<svg width="24" height="24" version="1.1" viewBox="0 0 24 24" xmlns="http://www.w3.org/2000/svg">
 <circle cx="12" cy="12.5" r="10" style="opacity:.2"/>
 <circle cx="12" cy="12" r="10" style="fill:#c44652"/>
 <path d="m7 4.4999494v2.0000001l-0.8466795 0.9560545c-1.2539602 0.745036-2.1990506 1.2489615-3.1533205 2.0439455l2 1.0000005-3.5 2 4 0.5-3.5 3.999999 4-0.999999v0.999999l2-0.5-0.5 1.5 3.5-1.5h2l3.5 1.5-0.5-1.5 2 0.5v-0.999999l4 0.999999-3.5-3.999999 4-0.5-3.5-2 2-1.0000005c-0.95427-0.794984-1.899361-1.2989095-3.153321-2.0439455l-0.846679-0.9560545v-2.0000001l-2 1.0000001v-0.5000001l-1 0.5000001v-0.5000001l-2 0.5000001-2-0.5000001v0.5000001l-1-0.5000001v0.5000001z" style="opacity:.2"/>
 <path d="M 12,2 A 10,10 0 0 0 2,12 10,10 0 0 0 2.01075,12.291 10,10 0 0 1 12,2.5 10,10 0 0 1 21.9895,12.209 10,10 0 0 0 22,12 10,10 0 0 0 12,2 Z" style="fill:#ffffff;opacity:.2"/>
 <path d="m7 4v2l-0.8466795 0.9560545c-1.2539602 0.745036-2.1990506 1.2489615-3.1533205 2.0439455l2 1-3.5 2 4 0.5-3.5 4 4-1v1l2-0.5-0.5 1.5 3.5-1.5h2l3.5 1.5-0.5-1.5 2 0.5v-1l4 1-3.5-4 4-0.5-3.5-2 2-1c-0.95427-0.794984-1.899361-1.2989095-3.153321-2.0439455l-0.846679-0.9560545v-2l-2 1v-0.5l-1 0.5v-0.5l-2 0.5-2-0.5v0.5l-1-0.5v0.5z" style="fill:#393939"/>
 <path d="m5 3.4999497-0.9973445 0.78125c-0.036999 1.1865805 0.3177607 2.240657 0.7437939 3.2714845 0.7407736 1.7177505 2.7424224 3.3561598 3.9502319 4.4125698 0.7662898 0.686448 0.9727114 1.291736 1.0823554 1.896484 0.127008 0.700522 0.203641 1.459974 0.2833503 2.628907 0.266544 1.521169 0.411787 2.999286 0.611494 3.82571 0.182953 0.191776 1.326119 0.183594 1.326119 0.183594s1.143167 0.0082 1.32612-0.183594c0.199707-0.826424 0.344951-2.304541 0.611494-3.82571 0.07971-1.168933 0.156342-1.928385 0.28335-2.628907 0.109644-0.604748 0.316065-1.210036 1.082356-1.896484 1.207808-1.05641 3.209458-2.6948193 3.950231-4.4125698 0.426033-1.0308275 0.780793-2.084904 0.743794-3.2714845l-0.997345-0.78125v0.7792969l-2.996639 2.2744141-4.003361-0.053711-4.0033598 0.053711-2.9966402-2.2744141z" style="opacity:.2"/>
 <path d="m 5,3.0000005 -0.9973445,0.78125 c -0.036999,1.1865805 0.3177607,2.240657 0.7437939,3.2714845 0.7407736,1.7177505 2.7424224,3.35616 3.9502319,4.41257 0.7662898,0.686448 0.9727114,1.291736 1.0823554,1.896484 0.127008,0.700522 0.203641,1.459974 0.2833503,2.628907 0.266544,1.521169 0.411787,2.999286 0.611494,3.82571 C 10.856834,20.008182 12,20 12,20 c 0,0 1.143167,0.0082 1.32612,-0.183594 0.199707,-0.826424 0.344951,-2.304541 0.611494,-3.82571 0.07971,-1.168933 0.156342,-1.928385 0.28335,-2.628907 0.109644,-0.604748 0.316065,-1.210036 1.082356,-1.896484 1.207808,-1.05641 3.209458,-2.6948195 3.950231,-4.41257 0.426033,-1.0308275 0.780793,-2.084904 0.743794,-3.2714845 L 19,3.0000005 V 3.7792974 L 16.003361,6.0537115 12,6.0000005 7.9966402,6.0537115 5,3.7792974 Z" style="fill:#505050"/>
 <path d="M 8.133956,8.1776775 A 1.6679336,1.6679336 0 0 0 8,8.832016 1.6679336,1.6679336 0 0 0 9.6679335,10.49995 1.6679336,1.6679336 0 0 0 11,9.8323845 Z" style="opacity:.2"/>
 <path d="M 8.133956,7.677728 A 1.6679336,1.6679336 0 0 0 8,8.3320665 1.6679336,1.6679336 0 0 0 9.6679335,10 1.6679336,1.6679336 0 0 0 11,9.332435 Z" style="fill:#eb6b00"/>
 <path d="M 15.866044,8.1776775 A 1.6679336,1.6679336 0 0 1 16,8.832016 1.6679336,1.6679336 0 0 1 14.332067,10.49995 1.6679336,1.6679336 0 0 1 13,9.8323845 Z" style="opacity:.2"/>
 <path d="M 15.866044,7.677728 A 1.6679336,1.6679336 0 0 1 16,8.3320665 1.6679336,1.6679336 0 0 1 14.332067,10 1.6679336,1.6679336 0 0 1 13,9.332435 Z" style="fill:#eb6b00"/>
 <path d="m13.5 12.989258c-0.520728 0.20921-0.96508 0.541721-1.5 0.5v0.010742c-0.53492 0.04172-0.979272-0.29079-1.5-0.5l0.512696 5.454101c0.03907 0.408029 0.04785 0.46255 0.388671 0.5 0.222722 0.03742 0.393713 0.051624 0.598633 0.045899v-0.01074c0.20492 0.0057 0.375911-0.0085 0.598633-0.0459 0.340829-0.03745 0.349607-0.09099 0.388671-0.499023z" style="opacity:.4"/>
 <path d="m11.5 17.489207c-0.217046 0.178857-0.406667 0.414354-0.561523 0.675781l0.07422 0.789063c0.03907 0.408028 0.04785 0.46255 0.388671 0.5 0.07223 0.01214 0.133974 0.01803 0.198242 0.02539h0.71582c0.08949-0.0077 0.180028-0.0188 0.283203-0.03614 0.340829-0.03745 0.349607-0.09099 0.388672-0.499024l0.07324-0.780273c-0.154732-0.260964-0.343813-0.496199-0.560545-0.674797v1h-1z" style="opacity:.2"/>
 <path d="m11.5 16.989258c-0.217046 0.178856-0.406667 0.414353-0.561523 0.675781l0.07422 0.789062c0.03907 0.408029 0.04785 0.46255 0.388671 0.5 0.07223 0.01213 0.133974 0.01803 0.198242 0.02539h0.71582c0.08949-0.0077 0.180028-0.0188 0.283203-0.03614 0.340829-0.03745 0.349607-0.091 0.388672-0.499023l0.07324-0.780274c-0.154732-0.260963-0.343813-0.496198-0.560545-0.674796v1h-1z" style="fill:#ffffff"/>
 <path d="m13.5 13.489207c-0.520728 0.209211-0.96508 0.541722-1.5 0.5v0.01074c-0.534208 0.04167-0.978214-0.289764-1.498047-0.499023 0.05801 0.702664 0.437833 1.537379 0.998047 1.999023v-1h1v1c0.563278-0.464169 0.945233-1.305698 1-2.010742z" style="opacity:.2"/>
 <path d="m13.5 12.989258s-0.971813 0.508988-1.5 0.510742c-0.526321 0.0017-1.498047-0.499002-1.498047-0.499002 0.058006 0.702643 0.437833 1.537358 0.998047 1.999002v-1h1v1c0.563278-0.46417 0.945233-1.305698 1-2.010742z" style="fill:#ffffff"/>
 <path d="M 8.133789,7.6777345 A 1.6679336,1.6679336 0 0 0 8,8.332031 1.6679336,1.6679336 0 0 0 8.02051,8.5810545 1.6679336,1.6679336 0 0 1 8.133791,8.1777345 l 2.550782,1.472656 A 1.6679336,1.6679336 0 0 0 11,9.332031 Z" style="fill:#ffffff;opacity:.1"/>
 <path d="M 15.866211,7.6777345 13,9.332031 a 1.6679336,1.6679336 0 0 0 0.31543,0.3183595 l 2.550781,-1.472656 a 1.6679336,1.6679336 0 0 1 0.113281,0.40332 A 1.6679336,1.6679336 0 0 0 16,8.332031 1.6679336,1.6679336 0 0 0 15.866211,7.6777345 Z" style="fill:#ffffff;opacity:.1"/>
 <path d="M 5 3 L 4.0019531 3.78125 C 3.9968071 3.9462856 4.016242 4.1034688 4.0253906 4.2636719 L 5 3.5 L 5 3 z M 19 3 L 19 3.5 L 19.974609 4.2636719 C 19.983758 4.1034688 20.003193 3.9462856 19.998047 3.78125 L 19 3 z M 5 3.7792969 L 5 4.2792969 L 7.9960938 6.5527344 L 12 6.5 L 16.003906 6.5527344 L 19 4.2792969 L 19 3.7792969 L 16.003906 6.0546875 L 12 6 L 7.9960938 6.0546875 L 5 3.7792969 z" style="fill:#ffffff;opacity:.1"/>
</svg>

<svg xmlns="http://www.w3.org/2000/svg" width="24" height="24" version="1.1" viewBox="0 0 24 24">
 <circle style="opacity:0.2" cx="12" cy="12.5" r="10"/>
 <circle style="fill:#c44652" cx="12" cy="12" r="10"/>
 <path d="M 7,4.4999494 V 6.4999495 L 6.1533205,7.456004 C 4.8993603,8.20104 3.9542699,8.7049655 3,9.4999495 l 2,1.0000005 -3.5,2 4,0.5 L 2,16.999949 6,15.99995 v 0.999999 l 2,-0.5 -0.5,1.5 3.5,-1.5 h 1 1 l 3.5,1.5 -0.5,-1.5 2,0.5 V 15.99995 l 4,0.999999 -3.5,-3.999999 4,-0.5 -3.5,-2 2,-1.0000005 C 20.04573,8.7049655 19.100639,8.20104 17.846679,7.456004 L 17,6.4999495 V 4.4999494 L 15,5.4999495 V 4.9999494 L 14,5.4999495 V 4.9999494 L 12,5.4999495 10,4.9999494 V 5.4999495 L 9,4.9999494 v 0.5000001 z" style="opacity:0.2"/>
 <path style="opacity:0.2;fill:#ffffff" d="M 12,2 A 10,10 0 0 0 2,12 10,10 0 0 0 2.01075,12.291 10,10 0 0 1 12,2.5 10,10 0 0 1 21.9895,12.209 10,10 0 0 0 22,12 10,10 0 0 0 12,2 Z"/>
 <path style="fill:#393939" d="M 7,4 V 6 L 6.1533205,6.9560545 C 4.8993603,7.7010905 3.9542699,8.205016 3,9 l 2,1 -3.5,2 4,0.5 -3.5,4 4,-1 v 1 L 8,16 7.5,17.5 11,16 h 1 1 l 3.5,1.5 -0.5,-1.5 2,0.5 v -1 l 4,1 -3.5,-4 4,-0.5 L 19,10 21,9 C 20.04573,8.205016 19.100639,7.7010905 17.846679,6.9560545 L 17,6 V 4 L 15,5 V 4.5 L 14,5 V 4.5 L 12,5 10,4.5 V 5 L 9,4.5 V 5 Z"/>
 <path d="m 5,3.4999497 -0.9973445,0.78125 c -0.036999,1.1865805 0.3177607,2.240657 0.7437939,3.2714845 0.7407736,1.7177505 2.7424224,3.3561598 3.9502319,4.4125698 0.7662898,0.686448 0.9727114,1.291736 1.0823554,1.896484 0.127008,0.700522 0.203641,1.459974 0.2833503,2.628907 0.266544,1.521169 0.411787,2.999286 0.611494,3.82571 C 10.856834,20.508131 12,20.499949 12,20.499949 c 0,0 1.143167,0.0082 1.32612,-0.183594 0.199707,-0.826424 0.344951,-2.304541 0.611494,-3.82571 0.07971,-1.168933 0.156342,-1.928385 0.28335,-2.628907 0.109644,-0.604748 0.316065,-1.210036 1.082356,-1.896484 1.207808,-1.05641 3.209458,-2.6948193 3.950231,-4.4125698 0.426033,-1.0308275 0.780793,-2.084904 0.743794,-3.2714845 L 19,3.4999497 V 4.2792466 L 16.003361,6.5536607 12,6.4999497 7.9966402,6.5536607 5,4.2792466 Z" style="opacity:0.2"/>
 <path style="fill:#505050" d="m 5,3.0000005 -0.9973445,0.78125 c -0.036999,1.1865805 0.3177607,2.240657 0.7437939,3.2714845 0.7407736,1.7177505 2.7424224,3.35616 3.9502319,4.41257 0.7662898,0.686448 0.9727114,1.291736 1.0823554,1.896484 0.127008,0.700522 0.203641,1.459974 0.2833503,2.628907 0.266544,1.521169 0.411787,2.999286 0.611494,3.82571 C 10.856834,20.008182 12,20 12,20 c 0,0 1.143167,0.0082 1.32612,-0.183594 0.199707,-0.826424 0.344951,-2.304541 0.611494,-3.82571 0.07971,-1.168933 0.156342,-1.928385 0.28335,-2.628907 0.109644,-0.604748 0.316065,-1.210036 1.082356,-1.896484 1.207808,-1.05641 3.209458,-2.6948195 3.950231,-4.41257 0.426033,-1.0308275 0.780793,-2.084904 0.743794,-3.2714845 L 19,3.0000005 V 3.7792974 L 16.003361,6.0537115 12,6.0000005 7.9966402,6.0537115 5,3.7792974 Z"/>
 <path d="M 8.133956,8.1776775 A 1.6679336,1.6679336 0 0 0 8,8.832016 1.6679336,1.6679336 0 0 0 9.6679335,10.49995 1.6679336,1.6679336 0 0 0 11,9.8323845 Z" style="opacity:0.2"/>
 <path style="fill:#eb6b00" d="M 8.133956,7.677728 A 1.6679336,1.6679336 0 0 0 8,8.3320665 1.6679336,1.6679336 0 0 0 9.6679335,10 1.6679336,1.6679336 0 0 0 11,9.332435 Z"/>
 <path style="opacity:0.2" d="M 15.866044,8.1776775 A 1.6679336,1.6679336 0 0 1 16,8.832016 1.6679336,1.6679336 0 0 1 14.332067,10.49995 1.6679336,1.6679336 0 0 1 13,9.8323845 Z"/>
 <path d="M 15.866044,7.677728 A 1.6679336,1.6679336 0 0 1 16,8.3320665 1.6679336,1.6679336 0 0 1 14.332067,10 1.6679336,1.6679336 0 0 1 13,9.332435 Z" style="fill:#eb6b00"/>
 <path style="opacity:0.4" d="m 13.5,12.989258 c -0.520728,0.20921 -0.96508,0.541721 -1.5,0.5 V 13.5 C 11.46508,13.54172 11.020728,13.20921 10.5,13 l 0.512696,5.454101 c 0.03907,0.408029 0.04785,0.46255 0.388671,0.5 C 11.624089,18.991521 11.79508,19.005725 12,19 v -0.01074 c 0.20492,0.0057 0.375911,-0.0085 0.598633,-0.0459 0.340829,-0.03745 0.349607,-0.09099 0.388671,-0.499023 z"/>
 <path d="m 11.5,17.489207 c -0.217046,0.178857 -0.406667,0.414354 -0.561523,0.675781 l 0.07422,0.789063 c 0.03907,0.408028 0.04785,0.46255 0.388671,0.5 0.07223,0.01214 0.133974,0.01803 0.198242,0.02539 H 12 12.31543 c 0.08949,-0.0077 0.180028,-0.0188 0.283203,-0.03614 0.340829,-0.03745 0.349607,-0.09099 0.388672,-0.499024 l 0.07324,-0.780273 C 12.905813,17.90304 12.716732,17.667805 12.5,17.489207 v 1 H 12 11.5 Z" style="opacity:0.2"/>
 <path style="fill:#ffffff" d="m 11.5,16.989258 c -0.217046,0.178856 -0.406667,0.414353 -0.561523,0.675781 l 0.07422,0.789062 c 0.03907,0.408029 0.04785,0.46255 0.388671,0.5 0.07223,0.01213 0.133974,0.01803 0.198242,0.02539 H 12 12.31543 c 0.08949,-0.0077 0.180028,-0.0188 0.283203,-0.03614 0.340829,-0.03745 0.349607,-0.091 0.388672,-0.499023 l 0.07324,-0.780274 C 12.905813,17.403091 12.716732,17.167856 12.5,16.989258 v 1 H 12 11.5 Z"/>
 <path d="m 13.5,13.489207 c -0.520728,0.209211 -0.96508,0.541722 -1.5,0.5 v 0.01074 c -0.534208,0.04167 -0.978214,-0.289764 -1.498047,-0.499023 0.05801,0.702664 0.437833,1.537379 0.998047,1.999023 v -1 h 0.5 0.5 v 1 c 0.563278,-0.464169 0.945233,-1.305698 1,-2.010742 z" style="opacity:0.2"/>
 <path style="fill:#ffffff" d="m 13.5,12.989258 c 0,0 -0.971813,0.508988 -1.5,0.510742 -0.526321,0.0017 -1.498047,-0.499002 -1.498047,-0.499002 C 10.559959,13.703641 10.939786,14.538356 11.5,15 v -1 h 0.5 0.5 v 1 c 0.563278,-0.46417 0.945233,-1.305698 1,-2.010742 z"/>
 <path style="opacity:0.1;fill:#ffffff" d="M 8.133789,7.6777345 A 1.6679336,1.6679336 0 0 0 8,8.332031 1.6679336,1.6679336 0 0 0 8.02051,8.5810545 1.6679336,1.6679336 0 0 1 8.133791,8.1777345 l 2.550782,1.472656 A 1.6679336,1.6679336 0 0 0 11,9.332031 Z"/>
 <path style="opacity:0.1;fill:#ffffff" d="M 15.866211,7.6777345 13,9.332031 a 1.6679336,1.6679336 0 0 0 0.31543,0.3183595 l 2.550781,-1.472656 a 1.6679336,1.6679336 0 0 1 0.113281,0.40332 A 1.6679336,1.6679336 0 0 0 16,8.332031 1.6679336,1.6679336 0 0 0 15.866211,7.6777345 Z"/>
 <path style="opacity:0.1;fill:#ffffff" d="M 5 3 L 4.0019531 3.78125 C 3.9968071 3.9462856 4.016242 4.1034688 4.0253906 4.2636719 L 5 3.5 L 5 3 z M 19 3 L 19 3.5 L 19.974609 4.2636719 C 19.983758 4.1034688 20.003193 3.9462856 19.998047 3.78125 L 19 3 z M 5 3.7792969 L 5 4.2792969 L 7.9960938 6.5527344 L 12 6.5 L 16.003906 6.5527344 L 19 4.2792969 L 19 3.7792969 L 16.003906 6.0546875 L 12 6 L 7.9960938 6.0546875 L 5 3.7792969 z"/>
</svg>
